X:10631
T:McKenna's No 2
M:4/4
L:1/8
S:Dermy Diamond, Belfast (fiddle)
R:Reel
D:Private tape - Belfast 198
H:'e3' in bar a unison
N:As played
Z:Bernie Stocks
K:G
e3d B2{d}BA | GABc AD{F}ED | GDGA BgeB | dBAd BGBd :|\
fa{b}af gfed |(3Bcdef B2g2fg | eB~B2 gedB | {d}BAGA BAAg |\
fdaf gfed | (3Bcdeg {a}gfga | bg~g2 gfed | e3g {a}gfgf ||
